icon/gr/expand.svg

<svg xmlns="http://www.w3.org/2000/svg" width="24" height="24"><path fill="none" stroke="#000" stroke-width="2" d="m10 14-8 8m-1-7v8h8M22 2l-8 8m1-9h8v8"/></svg>

<svg xmlns="http://www.w3.org/2000/svg" viewBox="0 0 24 24" height="1em" width="1em">
  <path fill="none" stroke="#000" stroke-width="2" d="M10,14 L2,22 M1,15 L1,23 L9,23 M22,2 L14,10 M15,1 L23,1 L23,9"/>
</svg>
